svg/Outline/headphone.svg

<svg viewBox="0 0 24 24" xmlns="http://www.w3.org/2000/svg" width="24" height="24"><g clip-path="url(#a)"><path fill-rule="evenodd" d="M12 1c5.66 0 11 4.9 11 11 0 .99-.31 2.28-.67 3.44a43 43 0 0 1-1 2.87l-.09.23-.06.14q-.18.39-.4.78a8 8 0 0 1-2.89 2.98c-1.02.56-2.23.8-3.29.28l-.2-.1-.67-.4h-.01a1.7 1.7 0 0 1-.6-2.28l4.22-7.41q.16-.3.42-.5l.14-.1q.22-.12.45-.19l.16-.03.33-.03.16.02.16.03q.17.04.32.1l.14.08.67.39.2.13q.34.24.6.57.1-.58.11-1c0-5.06-4.5-9.2-9.2-9.2S2.8 6.94 2.8 12q0 .42.1 1 .33-.41.8-.7h.01l.67-.4.14-.07q.23-.1.48-.13l.16-.02q.17 0 .33.03l.16.03.16.05.3.15.13.1.12.1q.18.16.3.39l4.22 7.4.08.16a1.7 1.7 0 0 1-.54 2.04l-.15.1-.66.38c-1.11.65-2.41.43-3.5-.17a7.8 7.8 0 0 1-3.3-3.77l-.05-.12c-.32-.81-.76-1.97-1.11-3.15A13 13 0 0 1 1 12C1 5.9 6.34 1 12 1m2.74 19.73.56.33.15.07c.36.14.9.1 1.57-.27a6 6 0 0 0 2.2-2.3c.62-1.08.89-2.2.87-3.08-.03-.9-.34-1.41-.7-1.63l-.55-.32zM4.62 13.85c-.36.22-.68.73-.7 1.63-.03.89.24 2 .86 3.09a6 6 0 0 0 2.2 2.3c.77.42 1.36.4 1.72.19l.56-.33-4.1-7.2z" clip-rule="evenodd"/></g><defs><clipPath id="a"><path d="M0 0h24v24H0z"/></clipPath></defs></svg>

<svg viewBox="0 0 24 24" xmlns="http://www.w3.org/2000/svg" width="24" height="24"><g clip-path="url(#a)"><path fill-rule="evenodd" d="M12 1C17.66 1 23 5.9 23 12C23 12.99 22.69 14.28 22.33 15.44A43 43 0 0 1 21.33 18.31L21.18 18.68Q21 19.07 20.78 19.46A8 8 0 0 1 17.89 22.44C16.87 23 15.66 23.24 14.6 22.72L13.72 22.22A1.7 1.7 0 0 1 13.12 19.94L17.34 12.53Q17.5 12.23 17.76 12.03L17.9 11.93Q18.12 11.81 18.35 11.74L18.84 11.68L19.16 11.73Q19.33 11.77 19.48 11.83L20.49 12.43Q20.83 12.67 21.09 13Q21.19 12.42 21.2 12C21.2 6.94 16.7 2.8 12 2.8C7.3 2.8 2.8 6.94 2.8 12Q2.8 12.42 2.9 13Q3.23 12.59 3.7 12.3L4.52 11.83Q4.75 11.73 5 11.7L5.16 11.68Q5.33 11.68 5.49 11.71L5.81 11.79L6.11 11.94L6.36 12.14Q6.54 12.3 6.66 12.53L10.96 20.09A1.7 1.7 0 0 1 10.42 22.13L9.61 22.61C8.5 23.26 7.2 23.04 6.11 22.44A7.8 7.8 0 0 1 2.81 18.67L2.76 18.55C2.44 17.74 2 16.58 1.65 15.4A13 13 0 0 1 1 12C1 5.9 6.34 1 12 1M14.74 20.73L15.45 21.13C15.81 21.27 16.35 21.23 17.02 20.86A6 6 0 0 0 19.22 18.56C19.84 17.48 20.11 16.36 20.09 15.48C20.06 14.58 19.75 14.07 19.39 13.85L18.84 13.53ZM4.62 13.85c-.36.22-.68.73-.7 1.63-.03.89.24 2 .86 3.09a6 6 0 0 0 2.2 2.3c.77.42 1.36.4 1.72.19l.56-.33-4.1-7.2z" clip-rule="evenodd"/></g><defs><clipPath id="a"><path d="M0 0h24v24H0z"/></clipPath></defs></svg>
